src/assets/outline/Eos.svg

<svg width="24" height="24" viewBox="0 0 24 24"  xmlns="http://www.w3.org/2000/svg">
<path d="M11.9999 22.5002C11.5999 22.5002 11.1999 22.4102 10.8799 22.2302L5.55992 19.1902C4.75992 18.7302 4.28992 17.7002 4.46992 16.7902L6.17991 8.22016C6.24991 7.89016 6.43992 7.48016 6.65992 7.22016L10.2599 2.90016C11.1499 1.83016 12.8299 1.83016 13.7199 2.90016L17.3199 7.22016C17.5399 7.48016 17.7299 7.89016 17.7999 8.22016L19.5099 16.7902C19.6899 17.7002 19.2199 18.7302 18.4199 19.1802L13.0999 22.2202C12.7999 22.4102 12.3999 22.5002 11.9999 22.5002ZM11.9999 3.56016C11.7899 3.56016 11.5899 3.67016 11.4199 3.86016L7.81993 8.18016C7.76993 8.24016 7.67992 8.43016 7.65992 8.51016L5.94993 17.0802C5.89993 17.3502 6.07992 17.7402 6.30992 17.8802L11.6299 20.9202C11.8099 21.0202 12.1999 21.0202 12.3699 20.9202L17.6899 17.8802C17.9299 17.7402 18.1099 17.3502 18.0499 17.0802L16.3399 8.51016C16.3199 8.43016 16.2299 8.24016 16.1799 8.18016L12.5799 3.86016C12.4099 3.67016 12.2099 3.56016 11.9999 3.56016Z" />
<path d="M11.9999 21.7607C11.4599 21.7607 10.9999 21.4307 10.8199 20.9307L6.46993 8.75074C6.32993 8.36074 6.52995 7.93074 6.91995 7.79074C7.30995 7.65074 7.73994 7.85074 7.87994 8.24074L11.9999 19.7707L16.1099 8.27074C16.2499 7.88074 16.6799 7.68074 17.0699 7.82074C17.4599 7.96074 17.6599 8.39074 17.5199 8.78074L13.1799 20.9407C12.9999 21.4407 12.5399 21.7607 11.9999 21.7607Z" />
</svg>

<?xml version="1.0" encoding="UTF-8"?>
<svg width="24" height="24" viewBox="0 0 24 24" xmlns="http://www.w3.org/2000/svg">
 <path d="m12 22.5c-0.4 0-0.8-0.09-1.12-0.27l-5.32-3.04c-0.8-0.46-1.27-1.49-1.09-2.4l1.71-8.57c0.07-0.33 0.26001-0.74 0.48001-1l3.6-4.32c0.89-1.07 2.57-1.07 3.46 0l3.6 4.32c0.22 0.26 0.41 0.67 0.48 1l1.71 8.57c0.18 0.91-0.29 1.94-1.09 2.39l-5.32 3.04c-0.3 0.19-0.7 0.28-1.1 0.28zm0-18.94c-0.21 0-0.41 0.11-0.58 0.3l-3.6 4.32c-0.05 0.06-0.14001 0.25-0.16001 0.33l-1.71 8.57c-0.05 0.27 0.12999 0.66 0.35999 0.8l5.32 3.04c0.18 0.1 0.57 0.1 0.74 0l5.32-3.04c0.24-0.14 0.42-0.53 0.36-0.8l-1.71-8.57c-0.02-0.08-0.11-0.27-0.16-0.33l-3.6-4.32c-0.17-0.19-0.37-0.3-0.58-0.3z"/>
 <path d="m12 21.761c-0.54 0-1-0.33-1.18-0.83l-4.35-12.18c-0.14-0.39 0.06002-0.82 0.45002-0.96s0.81999 0.06 0.95999 0.45l4.12 11.53 4.11-11.5c0.14-0.39 0.57-0.59 0.96-0.45s0.59 0.57 0.45 0.96l-4.34 12.16c-0.18 0.5-0.64 0.82-1.18 0.82z"/>
</svg>
